X: 12070
T: Esther's
R: reel
M: 4/4
K: Edorian
|:D|EFGA BABc|dDDD ADFD|EFGA BAGF|GBAF GEE-:|
|:E|efge fgaf|efge fddf|gfed (3efg fe|dBAF GEE-:|

